images/ico-pills-yellow.svg

<svg height="42" width="43" xmlns="http://www.w3.org/2000/svg"><path d="m38.828 19.418c-1.785 0-3.236-1.466-3.236-3.267 0-1.803 1.451-3.268 3.236-3.268 1.784 0 3.235 1.465 3.235 3.268 0 1.801-1.451 3.267-3.235 3.267zm0-5.083c-.992 0-1.798.814-1.798 1.816 0 1 .806 1.815 1.798 1.815.991 0 1.797-.815 1.797-1.815 0-1.002-.806-1.816-1.797-1.816zm-24.011 17.431c-1.587 1.603-3.672 2.404-5.757 2.404s-4.17-.801-5.757-2.404l-.144-.146c-3.174-3.205-3.174-8.42 0-11.627l16.466-16.626c3.174-3.206 8.34-3.206 11.514 0l.144.144c3.174 3.206 3.174 8.422 0 11.628zm-10.641-10.746c-2.614 2.64-2.614 6.934 0 9.574l.144.146c2.613 2.638 6.866 2.638 9.481 0l8.479-8.563-9.625-9.719zm26.09-16.482-.143-.144c-1.307-1.32-3.025-1.98-4.742-1.98s-3.432.659-4.74 1.979l-6.969 7.038 9.625 9.719 6.969-7.038c2.614-2.639 2.614-6.934 0-9.574zm-23.075 30.854c1.784 0 3.235 1.465 3.235 3.267 0 1.801-1.451 3.267-3.235 3.267s-3.236-1.466-3.236-3.267c0-1.802 1.452-3.267 3.236-3.267zm0 5.082c.991 0 1.797-.814 1.797-1.815s-.806-1.815-1.797-1.815-1.798.814-1.798 1.815.807 1.815 1.798 1.815zm11.504-7.987c1.784 0 3.236 1.465 3.236 3.267 0 1.803-1.452 3.268-3.236 3.268s-3.235-1.465-3.235-3.268c0-1.802 1.451-3.267 3.235-3.267zm0 5.083c.991 0 1.798-.815 1.798-1.816s-.807-1.814-1.798-1.814-1.797.813-1.797 1.814.806 1.816 1.797 1.816zm14.74-14.522c5.154 0 9.347 4.234 9.347 9.439s-4.193 9.439-9.347 9.439-9.347-4.234-9.347-9.439 4.193-9.439 9.347-9.439zm0 17.426c3.869 0 7.092-2.823 7.772-6.534h-15.544c.679 3.711 3.903 6.534 7.772 6.534zm7.909-7.987c0-4.404-3.548-7.987-7.909-7.987s-7.909 3.583-7.909 7.987z" fill="#fcd139" fill-rule="evenodd"/></svg>

<svg 
 xmlns="http://www.w3.org/2000/svg"
 xmlns:xlink="http://www.w3.org/1999/xlink"
 width="43px" height="42px">
<path fill-rule="evenodd"  fill="#fcd139"
 d="M38.828,19.418 C37.043,19.418 35.592,17.952 35.592,16.151 C35.592,14.348 37.043,12.883 38.828,12.883 C40.612,12.883 42.063,14.348 42.063,16.151 C42.063,17.952 40.612,19.418 38.828,19.418 ZM38.828,14.335 C37.836,14.335 37.030,15.149 37.030,16.151 C37.030,17.151 37.836,17.966 38.828,17.966 C39.819,17.966 40.625,17.151 40.625,16.151 C40.625,15.149 39.819,14.335 38.828,14.335 ZM14.817,31.766 C13.230,33.369 11.145,34.170 9.060,34.170 C6.975,34.170 4.890,33.369 3.303,31.766 L3.159,31.620 C-0.015,28.415 -0.015,23.200 3.159,19.993 L19.625,3.367 C22.799,0.161 27.965,0.161 31.139,3.367 L31.283,3.511 C34.457,6.717 34.457,11.933 31.283,15.139 L14.817,31.766 ZM4.176,21.020 C1.562,23.660 1.562,27.954 4.176,30.594 L4.320,30.740 C6.933,33.378 11.186,33.378 13.801,30.740 L22.280,22.177 L12.655,12.458 L4.176,21.020 ZM30.266,4.538 L30.123,4.394 C28.816,3.074 27.098,2.414 25.381,2.414 C23.664,2.414 21.949,3.073 20.641,4.393 L13.672,11.431 L23.297,21.150 L30.266,14.112 C32.880,11.473 32.880,7.178 30.266,4.538 ZM7.191,35.392 C8.975,35.392 10.426,36.857 10.426,38.659 C10.426,40.460 8.975,41.926 7.191,41.926 C5.407,41.926 3.955,40.460 3.955,38.659 C3.955,36.857 5.407,35.392 7.191,35.392 ZM7.191,40.474 C8.182,40.474 8.988,39.660 8.988,38.659 C8.988,37.658 8.182,36.844 7.191,36.844 C6.200,36.844 5.393,37.658 5.393,38.659 C5.393,39.660 6.200,40.474 7.191,40.474 ZM18.695,32.487 C20.479,32.487 21.931,33.952 21.931,35.754 C21.931,37.557 20.479,39.022 18.695,39.022 C16.911,39.022 15.460,37.557 15.460,35.754 C15.460,33.952 16.911,32.487 18.695,32.487 ZM18.695,37.570 C19.686,37.570 20.493,36.755 20.493,35.754 C20.493,34.753 19.686,33.940 18.695,33.940 C17.704,33.940 16.898,34.753 16.898,35.754 C16.898,36.755 17.704,37.570 18.695,37.570 ZM33.435,23.048 C38.589,23.048 42.782,27.282 42.782,32.487 C42.782,37.692 38.589,41.926 33.435,41.926 C28.281,41.926 24.088,37.692 24.088,32.487 C24.088,27.282 28.281,23.048 33.435,23.048 ZM33.435,40.474 C37.304,40.474 40.527,37.651 41.207,33.940 L25.663,33.940 C26.342,37.651 29.566,40.474 33.435,40.474 ZM41.344,32.487 C41.344,28.083 37.796,24.500 33.435,24.500 C29.074,24.500 25.526,28.083 25.526,32.487 L41.344,32.487 Z"/>
</svg>
